;START_OF_HEADER
;HEADER_VERSION:0.1
;FLAVOR:Griffin
;GENERATOR.NAME:Cura_SteamEngine
;GENERATOR.VERSION:4.13.1
;GENERATOR.BUILD_DATE:2022-01-28
;TARGET_MACHINE.NAME:Ultimaker S5
;EXTRUDER_TRAIN.0.INITIAL_TEMPERATURE:200
;EXTRUDER_TRAIN.0.MATERIAL.VOLUME_USED:3890
;EXTRUDER_TRAIN.0.MATERIAL.GUID:506c9f0d-e3aa-4bd4-b2d2-23e2425b1aa9
;EXTRUDER_TRAIN.0.NOZZLE.DIAMETER:0.4
;EXTRUDER_TRAIN.0.NOZZLE.NAME:AA 0.4
;BUILD_PLATE.TYPE:glass
;BUILD_PLATE.INITIAL_TEMPERATURE:60
;BUILD_VOLUME.TEMPERATURE:28
;PRINT.TIME:4158
;PRINT.GROUPS:1
;PRINT.SIZE.MIN.X:162.213
;PRINT.SIZE.MIN.Y:92.788
;PRINT.SIZE.MIN.Z:0.2
;PRINT.SIZE.MAX.X:212.073
;PRINT.SIZE.MAX.Y:153.648
;PRINT.SIZE.MAX.Z:16.2
;END_OF_HEADER
;Generated with Cura_SteamEngine 4.13.1
T0
M82 ;absolute extrusion mode

G92 E0
M109 S200
G280 S1
G0 Z20.001
G1 F1500 E-6.5
;LAYER_COUNT:161
;LAYER:0
M107
M204 S625
M205 X50 Y50
G1 F600 Z2.2
G0 F1285.7 X210.682 Y144.236 Z2.2
M204 S500
M205 X20 Y20
;TYPE:SKIRT
G1 F600 Z0.2
G1 F1500 E0
G1 F600 X210.128 Y144.885 E0.01124
G1 X203.709 Y151.532 E0.13291
G1 X203.164 Y152.039 E0.14271
G1 X202.568 Y152.484 E0.1525
G1 X201.927 Y152.863 E0.16231
G1 X201.25 Y153.171 E0.1721
G1 X200.543 Y153.405 E0.18191
G1 X199.815 Y153.562 E0.19171
G1 X198.724 Y153.648 E0.20612
G1 X175.368 Y153.648 E0.51366
G1 X174.625 Y153.608 E0.52346
G1 X173.89 Y153.489 E0.53326
G1 X173.172 Y153.291 E0.54307
G1 X172.48 Y153.018 E0.55287
G1 X171.821 Y152.672 E0.56267
G1 X171.203 Y152.257 E0.57247
G1 X170.554 Y151.703 E0.5837
G1 X164.329 Y145.692 E0.69765
G1 X163.822 Y145.147 E0.70745
G1 X163.377 Y144.551 E0.71724
G1 X162.998 Y143.91 E0.72705
G1 X162.69 Y143.233 E0.73684
G1 X162.456 Y142.526 E0.74665
G1 X162.299 Y141.798 E0.75645
G1 X162.213 Y140.707 E0.77086
G1 X162.213 Y116.688 E1.08713
G1 X162.253 Y115.945 E1.09693
G1 X162.372 Y115.21 E1.10673
G1 X162.57 Y114.492 E1.11654
G1 X162.843 Y113.8 E1.12634
G1 X163.189 Y113.141 E1.13614
G1 X163.604 Y112.523 E1.14594
G1 X164.158 Y111.874 E1.15717
G1 X169.924 Y105.904 E1.26646
G1 X170.469 Y105.397 E1.27626
G1 X171.066 Y104.951 E1.28608
G1 X171.499 Y104.694 E1.29271
G1 X171.367 Y104.204 E1.29939
G1 X171.25 Y103.469 E1.30919
G1 X171.213 Y102.622 E1.32035
G1 X171.253 Y101.879 E1.33015
G1 X171.372 Y101.144 E1.33995
G1 X171.57 Y100.426 E1.34976
G1 X171.843 Y99.734 E1.35956
G1 X172.189 Y99.075 E1.36936
G1 X172.604 Y98.457 E1.37916
G1 X173.083 Y97.887 E1.38896
G1 X173.62 Y97.372 E1.39876
G1 X174.209 Y96.917 E1.40856
G1 X174.843 Y96.528 E1.41835
G1 X175.49 Y96.22 E1.42779
G1 X177.667 Y95.318 E1.45882
G1 X178.369 Y95.07 E1.46862
G1 X179.094 Y94.899 E1.47843
G1 X179.832 Y94.807 E1.48822
G1 X180.32 Y94.79 E1.49465
G1 X189.287 Y94.79 E1.61272
G1 X189.623 Y94.468 E1.61885
G1 X190.212 Y94.013 E1.62865
G1 X190.846 Y93.624 E1.63844
G1 X191.519 Y93.305 E1.64825
G1 X192.222 Y93.06 E1.65805
G1 X192.947 Y92.892 E1.66785
G1 X194.146 Y92.788 E1.6837
G1 X195.141 Y92.788 E1.6968
G1 X195.884 Y92.828 E1.7066
G1 X196.619 Y92.947 E1.7164
G1 X197.337 Y93.145 E1.72621
G1 X198.029 Y93.418 E1.73601
G1 X198.688 Y93.764 E1.74581
G1 X199.306 Y94.179 E1.75561
G1 X199.876 Y94.658 E1.76541
G1 X200.391 Y95.195 E1.77521
G1 X200.955 Y95.962 E1.78775
G1 X201.69 Y96.338 E1.79862
G1 X202.308 Y96.753 E1.80842
G1 X202.878 Y97.232 E1.81822
G1 X203.393 Y97.769 E1.82802
G1 X203.848 Y98.358 E1.83782
G1 X204.237 Y98.992 E1.84761
G1 X204.556 Y99.665 E1.85742
G1 X204.801 Y100.368 E1.86722
G1 X204.969 Y101.093 E1.87702
G1 X205.073 Y102.292 E1.89287
G1 X205.073 Y103.144 E1.90409
G1 X205.033 Y103.887 E1.91389
G1 X204.914 Y104.622 E1.92369
G1 X204.716 Y105.34 E1.9335
G1 X204.406 Y106.103 E1.94434
G1 X209.957 Y111.464 E2.04595
G1 X210.464 Y112.009 E2.05576
G1 X210.909 Y112.605 E2.06555
G1 X211.288 Y113.246 E2.07536
G1 X211.596 Y113.923 E2.08515
G1 X211.83 Y114.63 E2.09495
G1 X211.987 Y115.358 E2.10476
G1 X212.073 Y116.449 E2.11917
G1 X212.073 Y140.071 E2.43021
G1 X212.033 Y140.814 E2.44001
G1 X211.914 Y141.549 E2.44981
G1 X211.716 Y142.267 E2.45962
G1 X211.443 Y142.959 E2.46942
G1 X211.097 Y143.618 E2.47922
G1 X210.682 Y144.236 E2.48902
M204 S625
M205 X50 Y50
G0 F1285.7 X210.265 Y144.089
M204 S500
M205 X20 Y20
G1 F600 X209.826 Y144.593 E2.49782
G1 X203.407 Y151.24 E2.61949
G1 X202.878 Y151.731 E2.629
G1 X202.298 Y152.159 E2.63849
G1 X201.674 Y152.521 E2.64799
G1 X201.013 Y152.812 E2.6575
G1 X200.325 Y153.028 E2.66699
G1 X199.617 Y153.166 E2.67649
G1 X198.724 Y153.228 E2.68828
G1 X175.368 Y153.228 E2.99581
G1 X174.648 Y153.188 E3.00531
G1 X173.936 Y153.069 E3.01481
G1 X173.242 Y152.871 E3.02432
G1 X172.575 Y152.598 E3.03381
G1 X171.941 Y152.253 E3.04331
G1 X171.35 Y151.84 E3.0528
G1 X170.846 Y151.401 E3.0616
G1 X164.621 Y145.39 E3.17555
G1 X164.131 Y144.861 E3.18504
G1 X163.702 Y144.281 E3.19454
G1 X163.34 Y143.657 E3.20404
G1 X163.049 Y142.997 E3.21354
G1 X162.833 Y142.308 E3.22305
G1 X162.695 Y141.6 E3.23254
G1 X162.633 Y140.707 E3.24433
G1 X162.633 Y116.688 E3.5606
G1 X162.673 Y115.968 E3.57009
G1 X162.792 Y115.256 E3.5796
G1 X162.99 Y114.562 E3.5891
G1 X163.263 Y113.895 E3.59859
G1 X163.608 Y113.261 E3.6081
G1 X164.021 Y112.67 E3.61759
G1 X164.46 Y112.165 E3.6264
G1 X170.226 Y106.195 E3.73569
G1 X170.756 Y105.705 E3.74519
G1 X171.336 Y105.276 E3.75469
G1 X172.006 Y104.894 E3.76485
G1 X171.738 Y103.92 E3.77815
G1 X171.633 Y102.753 E3.79358
G1 X171.673 Y101.902 E3.80479
G1 X171.792 Y101.19 E3.8143
G1 X171.99 Y100.496 E3.8238
G1 X172.263 Y99.829 E3.83329
G1 X172.608 Y99.195 E3.8428
G1 X173.021 Y98.604 E3.85229
G1 X173.497 Y98.062 E3.86179
G1 X174.03 Y97.576 E3.87129
G1 X174.614 Y97.152 E3.88079
G1 X175.651 Y96.608 E3.89621
G1 X177.828 Y95.706 E3.92724
G1 X178.509 Y95.467 E3.93674
G1 X179.212 Y95.305 E3.94624
G1 X180.32 Y95.21 E3.96088
G1 X189.454 Y95.21 E4.08115
G1 X190.033 Y94.672 E4.09156
G1 X190.617 Y94.248 E4.10106
G1 X191.244 Y93.891 E4.11056
G1 X191.906 Y93.605 E4.12006
G1 X192.596 Y93.395 E4.12956
G1 X193.305 Y93.263 E4.13905
G1 X194.146 Y93.208 E4.15015
G1 X195.141 Y93.208 E4.16325
G1 X195.861 Y93.248 E4.17275
G1 X196.573 Y93.367 E4.18225
G1 X197.267 Y93.565 E4.19175
G1 X197.934 Y93.838 E4.20124
G1 X198.568 Y94.183 E4.21075
G1 X199.159 Y94.596 E4.22024
G1 X199.701 Y95.072 E4.22974
G1 X200.187 Y95.605 E4.23924
G1 X200.678 Y96.306 E4.25051
G1 X201.57 Y96.757 E4.26367
G1 X202.161 Y97.17 E4.27316
G1 X202.703 Y97.646 E4.28266
G1 X203.189 Y98.179 E4.29216
G1 X203.613 Y98.763 E4.30166
G1 X203.97 Y99.39 E4.31116
G1 X204.256 Y100.052 E4.32066
G1 X204.466 Y100.742 E4.33015
G1 X204.598 Y101.451 E4.33965
G1 X204.653 Y102.292 E4.35075
G1 X204.653 Y103.144 E4.36197
G1 X204.613 Y103.864 E4.37146
G1 X204.494 Y104.576 E4.38097
G1 X204.296 Y105.27 E4.39047
G1 X203.887 Y106.187 E4.40369
G1 X209.665 Y111.766 E4.50945
G1 X210.155 Y112.295 E4.51894
G1 X210.584 Y112.875 E4.52844
G1 X210.946 Y113.499 E4.53794
G1 X211.237 Y114.159 E4.54744
G1 X211.453 Y114.848 E4.55695
G1 X211.591 Y115.556 E4.56644
G1 X211.653 Y116.449 E4.57823
G1 X211.653 Y140.071 E4.88927
G1 X211.613 Y140.791 E4.89877
G1 X211.494 Y141.503 E4.90827
G1 X211.296 Y142.197 E4.91777
G1 X211.023 Y142.864 E4.92726
G1 X210.678 Y143.498 E4.93677
G1 X210.265 Y144.089 E4.94626
M204 S625
M205 X50 Y50
G0 F1285.7 X209.848 Y143.937
M204 S500
M205 X20 Y20
G1 F600 X209.524 Y144.301 E4.95268
G1 X203.105 Y150.948 E5.07435
G1 X202.592 Y151.422 E5.08355
G1 X202.029 Y151.833 E5.09273
G1 X201.422 Y152.178 E5.10192
G1 X200.78 Y152.451 E5.11111
G1 X200.111 Y152.648 E5.12029
G1 X199.423 Y152.768 E5.12949
G1 X198.724 Y152.808 E5.1387
G1 X175.368 Y152.808 E5.44624
G1 X174.671 Y152.768 E5.45543
G1 X173.984 Y152.649 E5.46462
G1 X173.315 Y152.451 E5.4738
G1 X172.672 Y152.179 E5.483
G1 X172.066 Y151.835 E5.49217
G1 X171.502 Y151.423 E5.50137
G1 X171.138 Y151.099 E5.50778
G1 X164.913 Y145.088 E5.62173
G1 X164.439 Y144.575 E5.63092
G1 X164.028 Y144.012 E5.6401
G1 X163.683 Y143.405 E5.6493
G1 X163.411 Y142.763 E5.65848
G1 X163.213 Y142.094 E5.66766
G1 X163.093 Y141.406 E5.67686
G1 X163.053 Y140.707 E5.68608
G1 X163.053 Y116.688 E6.00235
G1 X163.093 Y115.991 E6.01154
G1 X163.212 Y115.304 E6.02072
G1 X163.41 Y114.635 E6.02991
G1 X163.682 Y113.992 E6.0391
G1 X164.026 Y113.386 E6.04828
G1 X164.438 Y112.822 E6.05747
G1 X164.763 Y112.457 E6.06391
G1 X170.529 Y106.487 E6.17319
G1 X171.041 Y106.014 E6.18237
G1 X171.605 Y105.602 E6.19157
G1 X172.211 Y105.258 E6.20075
G1 X172.539 Y105.119 E6.20544
G1 X172.259 Y104.324 E6.21653
G1 X172.118 Y103.641 E6.22572
G1 X172.053 Y102.753 E6.23744
G1 X172.093 Y101.925 E6.24836
G1 X172.212 Y101.238 E6.25754
G1 X172.41 Y100.569 E6.26672
G1 X172.682 Y99.926 E6.27592
G1 X173.026 Y99.32 E6.28509
G1 X173.438 Y98.756 E6.29429
G1 X173.911 Y98.243 E6.30348
G1 X174.439 Y97.788 E6.31265
G1 X175.016 Y97.396 E6.32184
G1 X175.812 Y96.996 E6.33357
G1 X177.989 Y96.094 E6.3646
G1 X178.648 Y95.864 E6.37379
G1 X179.328 Y95.711 E6.38297
G1 X180.32 Y95.63 E6.39607
G1 X189.646 Y95.63 E6.51887
G1 X189.914 Y95.339 E6.52408
G1 X190.442 Y94.884 E6.53326
G1 X191.019 Y94.492 E6.54244
G1 X191.638 Y94.169 E6.55164
G1 X192.289 Y93.918 E6.56082
G1 X192.965 Y93.744 E6.57002
G1 X193.656 Y93.648 E6.5792
G1 X194.146 Y93.628 E6.58566
G1 X195.141 Y93.628 E6.59876
G1 X195.838 Y93.668 E6.60795
G1 X196.525 Y93.787 E6.61713
G1 X197.194 Y93.985 E6.62632
G1 X197.837 Y94.257 E6.63551
G1 X198.443 Y94.601 E6.64469
G1 X199.007 Y95.013 E6.65389
G1 X199.52 Y95.486 E6.66307
G1 X199.975 Y96.014 E6.67225
G1 X200.394 Y96.643 E6.6822
G1 X200.839 Y96.831 E6.68856
G1 X201.445 Y97.175 E6.69774
G1 X202.009 Y97.587 E6.70694
G1 X202.522 Y98.06 E6.71612
G1 X202.977 Y98.588 E6.7253
G1 X203.369 Y99.165 E6.73449
G1 X203.692 Y99.784 E6.74368
G1 X203.943 Y100.435 E6.75287
G1 X204.117 Y101.111 E6.76206
G1 X204.213 Y101.802 E6.77124
G1 X204.233 Y102.292 E6.7777
G1 X204.233 Y103.144 E6.78892
G1 X204.193 Y103.841 E6.79811
G1 X204.074 Y104.528 E6.80729
G1 X203.876 Y105.197 E6.81648
G1 X203.604 Y105.84 E6.82567
G1 X203.361 Y106.268 E6.83215
G1 X203.438 Y106.337 E6.83352
G1 X209.373 Y112.068 E6.94215
G1 X209.847 Y112.581 E6.95135
G1 X210.258 Y113.144 E6.96053
G1 X210.603 Y113.751 E6.96972
G1 X210.875 Y114.393 E6.9789
G1 X211.073 Y115.062 E6.98809
G1 X211.193 Y115.75 E6.99728
G1 X211.233 Y116.449 E7.0065
G1 X211.233 Y140.071 E7.31754
G1 X211.193 Y140.768 E7.32674
G1 X211.074 Y141.455 E7.33592
G1 X210.876 Y142.124 E7.3451
G1 X210.604 Y142.767 E7.3543
G1 X210.26 Y143.373 E7.36347
G1 X209.848 Y143.937 E7.37267
M204 S625
M205 X50 Y50
G0 F1285.7 X209.842 Y143.244
M204 S500
M205 X20 Y20
G1 F600 X209.222 Y144.01 E7.38564
G1 X202.803 Y150.657 E7.50732
G1 X202.307 Y151.112 E7.51618
G1 X201.761 Y151.506 E7.52505
G1 X201.172 Y151.832 E7.53391
G1 X200.549 Y152.086 E7.54277
G1 X199.9 Y152.265 E7.55163
G1 X199.234 Y152.365 E7.5605
G1 X198.724 Y152.388 E7.56722
G1 X175.368 Y152.388 E7.87476
G1 X174.696 Y152.348 E7.88363
G1 X174.033 Y152.229 E7.89249
G1 X173.39 Y152.032 E7.90135
G1 X172.774 Y151.76 E7.91022
G1 X172.195 Y151.417 E7.91908
G1 X171.429 Y150.797 E7.93205
G1 X165.204 Y144.786 E8.046
G1 X164.749 Y144.29 E8.05486
G1 X164.355 Y143.744 E8.06373
G1 X164.029 Y143.155 E8.07259
G1 X163.775 Y142.532 E8.08145
G1 X163.596 Y141.883 E8.09031
G1 X163.496 Y141.217 E8.09918
G1 X163.473 Y140.707 E8.1059
G1 X163.473 Y116.688 E8.42217
G1 X163.513 Y116.016 E8.43104
G1 X163.632 Y115.353 E8.43991
G1 X163.829 Y114.71 E8.44876
G1 X164.101 Y114.094 E8.45763
G1 X164.444 Y113.515 E8.46649
G1 X165.065 Y112.749 E8.47947
G1 X170.831 Y106.779 E8.58876
G1 X171.326 Y106.323 E8.59762
G1 X171.872 Y105.93 E8.60648
G1 X172.461 Y105.604 E8.61534
G1 X173.104 Y105.345 E8.62447
G1 X172.81 Y104.678 E8.63407
G1 X172.619 Y104.033 E8.64293
G1 X172.507 Y103.369 E8.65179
G1 X172.473 Y102.622 E8.66164
G1 X172.513 Y101.95 E8.6705
G1 X172.632 Y101.287 E8.67937
G1 X172.829 Y100.644 E8.68823
G1 X173.101 Y100.028 E8.6971
G1 X173.444 Y99.449 E8.70596
G1 X173.853 Y98.914 E8.71482
G1 X174.323 Y98.432 E8.72369
G1 X174.847 Y98.009 E8.73256
G1 X175.417 Y97.65 E8.74143
G1 X175.973 Y97.384 E8.74954
G1 X178.15 Y96.482 E8.78057
G1 X178.786 Y96.262 E8.78943
G1 X179.444 Y96.118 E8.7983
G1 X180.32 Y96.05 E8.80987
G1 X189.825 Y96.05 E8.93503
G1 X190.326 Y95.528 E8.94455
G1 X190.85 Y95.105 E8.95342
G1 X191.42 Y94.746 E8.96229
G1 X192.028 Y94.458 E8.97115
G1 X192.666 Y94.244 E8.98001
G1 X193.326 Y94.108 E8.98888
G1 X194.146 Y94.048 E8.99971
G1 X195.141 Y94.048 E9.01281
G1 X195.813 Y94.088 E9.02167
G1 X196.476 Y94.207 E9.03054
G1 X197.119 Y94.404 E9.0394
G1 X197.735 Y94.676 E9.04827
G1 X198.314 Y95.019 E9.05713
G1 X198.849 Y95.428 E9.06599
G1 X199.331 Y95.898 E9.07486
G1 X199.754 Y96.422 E9.08373
G1 X200.121 Y96.978 E9.0925
G1 X200.737 Y97.25 E9.10137
G1 X201.316 Y97.593 E9.11023
G1 X201.851 Y98.002 E9.11909
G1 X202.333 Y98.472 E9.12796
G1 X202.756 Y98.996 E9.13683
G1 X203.115 Y99.566 E9.1457
G1 X203.403 Y100.174 E9.15455
G1 X203.617 Y100.812 E9.16341
G1 X203.753 Y101.472 E9.17229
G1 X203.813 Y102.292 E9.18311
G1 X203.813 Y103.144 E9.19433
G1 X203.773 Y103.816 E9.2032
G1 X203.654 Y104.479 E9.21207
G1 X203.457 Y105.122 E9.22092
G1 X203.185 Y105.738 E9.22979
G1 X202.807 Y106.363 E9.23941
G1 X203.147 Y106.639 E9.24517
G1 X209.082 Y112.37 E9.35381
G1 X209.537 Y112.866 E9.36267
G1 X209.931 Y113.412 E9.37154
G1 X210.257 Y114.001 E9.3804
G1 X210.511 Y114.624 E9.38926
G1 X210.69 Y115.273 E9.39812
G1 X210.79 Y115.939 E9.40699
G1 X210.813 Y116.449 E9.41371
G1 X210.813 Y140.071 E9.72475
G1 X210.773 Y140.743 E9.73362
G1 X210.654 Y141.406 E9.74249
G1 X210.457 Y142.049 E9.75134
G1 X210.185 Y142.665 E9.76021
G1 X209.842 Y143.244 E9.76907
M204 S625
M205 X50 Y50
G0 F1285.7 X209.424 Y143.11
M204 S500
M205 X20 Y20
G1 F600 X208.92 Y143.718 E9.77947
G1 X202.501 Y150.365 E9.90114
G1 X202.023 Y150.802 E9.90967
G1 X201.495 Y151.177 E9.9182
G1 X200.924 Y151.485 E9.92674
G1 X200.321 Y151.719 E9.93526
G1 X199.692 Y151.878 E9.9438
G1 X198.724 Y151.968 E9.9566
G1 X175.368 Y151.968 E10.26414
G1 X174.721 Y151.928 E10.27267
G1 X174.085 Y151.809 E10.28119
G1 X173.468 Y151.612 E10.28972
G1 X172.879 Y151.341 E10.29826
G1 X172.329 Y150.999 E10.30679
G1 X171.721 Y150.495 E10.31719
G1 X165.496 Y144.484 E10.43113
G1 X165.059 Y144.006 E10.43966
G1 X164.684 Y143.478 E10.44819
G1 X164.376 Y142.907 E10.45673
G1 X164.142 Y142.304 E10.46524
G1 X163.983 Y141.676 E10.47377
G1 X163.893 Y140.707 E10.48659
G1 X163.893 Y116.688 E10.80286
G1 X163.933 Y116.041 E10.81139
G1 X164.052 Y115.405 E10.81991
G1 X164.249 Y114.788 E10.82844
G1 X164.52 Y114.199 E10.83698
G1 X164.862 Y113.649 E10.84551
G1 X165.367 Y113.041 E10.85591
G1 X171.133 Y107.071 E10.9652
G1 X171.611 Y106.633 E10.97374
G1 X172.139 Y106.258 E10.98226
G1 X172.709 Y105.951 E10.99079
G1 X173.313 Y105.717 E10.99932
G1 X173.742 Y105.608 E11.00515
G1 X173.387 Y104.976 E11.01469
G1 X173.149 Y104.373 E11.02323
G1 X172.988 Y103.746 E11.03175
G1 X172.893 Y102.753 E11.04489
G1 X172.933 Y101.975 E11.05514
G1 X173.052 Y101.339 E11.06366
G1 X173.249 Y100.722 E11.07219
G1 X173.52 Y100.133 E11.08073
G1 X173.862 Y99.583 E11.08926
G1 X174.269 Y99.079 E11.09779
G1 X174.735 Y98.629 E11.10632
G1 X175.252 Y98.24 E11.11484
G1 X176.133 Y97.772 E11.12797
G1 X178.31 Y96.87 E11.159
G1 X178.923 Y96.659 E11.16754
G1 X179.557 Y96.526 E11.17607
G1 X180.32 Y96.47 E11.18614
G1 X190.034 Y96.47 E11.31405
G1 X190.272 Y96.175 E11.31904
G1 X190.738 Y95.725 E11.32757
G1 X191.255 Y95.336 E11.33609
G1 X191.817 Y95.013 E11.34462
G1 X192.414 Y94.762 E11.35315
G1 X193.038 Y94.586 E11.36169
G1 X193.678 Y94.489 E11.37021
G1 X194.146 Y94.468 E11.37638
G1 X195.141 Y94.468 E11.38948
G1 X195.788 Y94.508 E11.39802
G1 X196.424 Y94.627 E11.40654
G1 X197.041 Y94.824 E11.41507
